X:1
T:St. Clair's Hornpipe [2]
M:2/4
L:1/8
S:White’s Unique Collection (1896), No. 99
Z:AK/Fiddler’s Companion
K:D
A | B/A/^G/A/ D/F/A/c/ | e/d/c/d/ F/A/e/f/ | f/e/^d/e/ A/c/e/g/ | (f/c/)(d/B/) AA |
B/A/^G/A/ D/F/A/c/ | e/d/c/d/ F/A/c/d/ | (f/e/).^d/.e/ (A/c/).e/.f/ | dfd :|
|: (e/f/) | .g/(e/^d/e/) A/c/e/g/ | (f/d/)(c/d/) F/A/d/f/ | (e/c/)(^B/c/) E/A/c/e/ | e/d/c/d/ (A/F/)(B/A/) |
.g/(e/^d/e/) A/c/e/g/ | (f/d/)(c/d/) F/A/d/f/ |(e/c/)(^B/c/) E/A/c/e/ | (e/d/)(f/e/) d :|

